X:1
T:Capt Hood's Quick March
T:Capt Hood's Quick March
T:Abraham Mackintosh
C:Abraham Mackintosh
%%score 1 2 3
L:1/8
M:6/8
K:C
V:1 treble 
V:2 treble 
V:3 bass 
V:1
 e/d/ | e2 E Gcc | cAc c2 A | (G/A/B)B B2 c | BGA Bed | c2 G A2 A | G2 [FA] EFG | %7
 [Fc]2 [Fc] [Ec][FB][Gc] | [FB]3 [Ec]ed :: (c/d/e).e e2 f | e2 d c2 A | G/A/BB B2 c | BcA GAB | %13
 G2 G G2 G c2 c c2 A | [Fc]2 [Fc] [Ec][FB][Gc] | [FB]3 ced | x6 :| %17
V:2
 g/f/ | e2 c ceg | afa gec | (B/c/d).d d2 e | dBc dgf | e2 c cdc | cGc cde | fga gfe | d3 cgf :: %9
 (e/f/g)g .g2 a | gef gec | B/c/dd d2 g | dec Bcd | e>fe e<ge x6 | f2 a gec | fga g<c'e | d3 cgf :| %17
V:3
 z | C,3 E,3 | F,2 F, E,2 F, | G,3 G,,3 | G,3 B,,3 | C,2 E, F,2 F, | E,2 C CB,_B, | A,G,F, E,D,C, | %8
 G,2 G,, C,2 B,, :: C,3 C,,3 | C,2 D, E,2 F, | G,2 G,, G,F,E, | F,2 ^F, G,3 | C2 C, C2 _B, x6 | %14
 A,2 F, E,2 C, | A,,2 F, C2 C, | G,2 G,, C,2 B,, :| %17

